X: 1073
T: Sir John A McDonald
N: page A34
N: heptatonic
M: 3/4
L: 1/8
K: A clef=treble
"A"e3 d|c3 B A2|A2 E2 C2|"D"D3 E F2|"A"E2 (3F,A,C D>D|"A"A3C E2|A2 B2 c2|"D"F4 =F2|
"A"E2e3d|c3BA2|A2E2C2|"D"D3E F2|"E"E4 CD|E2c4|"G#dim"B3c BA|"A"A6-|[1A2:|[2A4|:
(3efg|"A"a2z2a2|"E"g2z2g2|"D"f2d3f|"A"e2c2A2|"D"F4=F2|"A"E2A2c2|"G#dim"B4e2|"E"e4 (3efg|
"A"a>c A>c e>a|g>g e>A e>g|"D"f>d A>d f>f|"A"e>c A>E A>B|c6|"G#dim"B4A2|"A"A4:|
